X: 1
T: Aly's Waltz
%C: attr. Terry Rasmussen (@tunearch.org)
S: Jean Zack transcription from Seamus McGuire The Wishing Tree
S: Bronwyn Bird & Justin Nawn's facebook "session" 2020-5-1
Z: 2020 John Chambers <jc:trillian.mit.edu>
R: Waltz
M: 3/4
L: 1/8
K: F
{C}FG \
| "F"A3 dcA | "C"G3 dcA | "Dm"F3 GFE | "Bb"D2 E3 F | "F"C2 F2 A2 \
|[1,3 "Gm"B3 BAG | "F"F C3 A2 | "C7"G4 z :|
|[2,4 "Gm"B3 AGF | "Bb"D F3 "C"E2 | "F"F4 :: c2 \
| "Bb"d2 e3 f | "Am"c2 e3 f | "Gm"B3 AGF | "Dm"A6 \
| "A"A3 =B^c>A | "Bb"d4 cB |
| "F"Ac F2 EF | "C"G4 {E}FG \
| "F"A2 d2 cA | "C"G2 d2 cA | "Dm"F3 GFE | "Bb"D2 E3 F \
| "F"C2 F2 A2 | "Gm"B3 AGF | "Bb"D F3 "C"E2 | "F"F4 :|
